Newaita-dark/apps/16/blueman.svg

<svg height="16pt" viewBox="0 0 16 16" width="16pt" xmlns="http://www.w3.org/2000/svg" xmlns:xlink="http://www.w3.org/1999/xlink"><linearGradient id="a"><stop offset="0" stop-opacity=".313725"/><stop offset=".222222" stop-opacity=".27451"/><stop offset="1" stop-opacity="0"/></linearGradient><radialGradient id="b" cx="450.90894" cy="189.57936" gradientTransform="matrix(.00000009 -.0390662 -.0703192 -.00000005 22.261576 31.797666)" gradientUnits="userSpaceOnUse" r="21.166656" xlink:href="#a"/><radialGradient id="c" cx="450.90894" cy="189.57936" gradientTransform="matrix(-.00000009 .0390662 .0703192 .00000005 -6.38506 -3.763741)" gradientUnits="userSpaceOnUse" r="21.166656" xlink:href="#a"/><radialGradient id="d" cx="450.90894" cy="189.57936" gradientTransform="matrix(-.00000009 -.0390662 .0703192 -.00000005 -6.38506 31.797666)" gradientUnits="userSpaceOnUse" r="21.166656" xlink:href="#a"/><radialGradient id="e" cx="450.90894" cy="189.57936" gradientTransform="matrix(.00000009 .0390662 -.0703192 .00000005 22.261575 -3.763741)" gradientUnits="userSpaceOnUse" r="21.166656" xlink:href="#a"/><linearGradient id="f" gradientTransform="matrix(.00668003 0 0 .031253 6.232693 6.719392)" gradientUnits="userSpaceOnUse" x1="255.32306" x2="255.32304" y1="233.5" y2="254.66666"><stop offset="0" stop-opacity=".27451"/><stop offset="1" stop-opacity="0"/></linearGradient><linearGradient id="g" gradientUnits="userSpaceOnUse" x1="7.938262" x2="7.938262" y1="14.0169675" y2="1.44805256249"><stop offset="0" stop-color="#3f51b5"/><stop offset="1" stop-color="#5c6bc0"/></linearGradient><linearGradient id="h" gradientUnits="userSpaceOnUse" x1="7.27674006249" x2="7.27674006249" y1="1.44805287502" y2="14.0169675"><stop offset="0" stop-color="#e0e0e0"/><stop offset="1" stop-color="#bdbdbd"/></linearGradient><path d="m9.097656 14.015625h1.320313v-.660156h-1.320313zm0 0" fill="url(#b)"/><path d="m6.78125 14.015625h-1.324219v.664063h1.324219zm0 0" fill="url(#c)"/><path d="m6.78125 14.015625h-1.324219v-.660156h1.324219zm0 0" fill="url(#d)"/><path d="m9.097656 14.015625h1.320313v.664063h-1.320313zm0 0" fill="url(#e)"/><path d="m6.78125 13.851562h2.316406v.828126h-2.316406zm0 0" fill="url(#f)"/><path d="m7.9375 1.449219c2.191406 0 3.96875 1.777343 3.96875 3.96875v4.628906c0 2.191406-1.777344 3.96875-3.96875 3.96875s-3.96875-1.777344-3.96875-3.96875v-4.628906c0-2.191407 1.777344-3.96875 3.96875-3.96875zm0 0" fill="url(#g)"/><path d="m7.9375 1.449219c-2.199219 0-3.96875 1.769531-3.96875 3.96875v.164062c0-2.199219 1.769531-3.96875 3.96875-3.96875s3.96875 1.769531 3.96875 3.96875v-.164062c0-2.199219-1.769531-3.96875-3.96875-3.96875zm0 0" fill="#fff" fill-opacity=".392157"/><path d="m3.96875 9.941406v.105469c0 2.199219 1.769531 3.96875 3.96875 3.96875s3.96875-1.769531 3.96875-3.96875v-.105469c0 2.199219-1.769531 3.96875-3.96875 3.96875s-3.96875-1.769531-3.96875-3.96875zm0 0" fill-opacity=".235294"/><path d="m7.9375 1.402344c-2.222656 0-4.015625 1.789062-4.015625 4.015625v4.628906c0 2.226563 1.792969 4.015625 4.015625 4.015625 2.226562 0 4.015625-1.789062 4.015625-4.015625v-4.628906c0-2.226563-1.789063-4.015625-4.015625-4.015625zm0 .09375c2.175781 0 3.921875 1.746094 3.921875 3.921875v4.628906c0 2.175781-1.746094 3.921875-3.921875 3.921875-2.171875 0-3.921875-1.746094-3.921875-3.921875v-4.628906c0-2.175781 1.75-3.921875 3.921875-3.921875zm0 0" fill="#212121"/><path d="m7.78125 3.59375c-.132812 0-.261719.050781-.359375.144531-.09375.09375-.148437.222657-.148437.355469v2.347656l-1.148438-1.058594c-.128906-.125-.316406-.171874-.488281-.117187-.171875.050781-.304688.195313-.34375.371094-.035157.175781.023437.359375.15625.476562l1.753906 1.621094-1.753906 1.617187c-.132813.117188-.191407.300782-.15625.476563.039062.179687.171875.320313.34375.371094.171875.054687.359375.007812.488281-.117188l1.148438-1.054687v2.34375c0 .1875.105468.359375.269531.445312.167969.082032.367187.070313.519531-.039062l2.316406-1.652344c.121094-.089844.199219-.226562.207032-.375.011718-.152344-.046876-.296875-.160157-.398438l-1.75-1.617187 1.75-1.621094c.113281-.101562.171875-.246093.160157-.398437-.007813-.148438-.085938-.285156-.207032-.375l-2.316406-1.652344c-.082031-.058594-.179688-.089844-.28125-.09375zm.492188 1.46875 1.023437.734375-1.023437.949219zm0 3.65625 1.023437.949219-1.023437.734375zm0 0" fill="url(#h)"/><path d="m7.78125 3.59375c-.132812 0-.261719.050781-.359375.144531-.09375.09375-.148437.222657-.148437.355469v.164062c0-.136718.054687-.265624.148437-.359374.097656-.09375.226563-.144532.359375-.140626.101562 0 .199219.035157.28125.09375l2.316406 1.652344c.105469.078125.179688.195313.199219.324219.03125-.1875-.046875-.375-.199219-.488281l-2.316406-1.652344c-.082031-.058594-.179688-.089844-.28125-.09375zm-2.019531 1.648438c-.140625.007812-.277344.074218-.367188.183593-.089843.113281-.128906.257813-.105469.398438.039063-.234375.238282-.410157.472657-.417969.136719-.003906.265625.042969.363281.136719l1.148438 1.058593v-.160156l-1.148438-1.058594c-.097656-.09375-.226562-.144531-.363281-.140624zm3.382812.695312-.871093.808594v.160156l.871093-.804688.054688.039063.097656-.09375zm-2.078125 1.921875-1.617187 1.492187c-.128907.113282-.1875.285157-.160157.453126.019532-.113282.074219-.214844.160157-.292969l1.617187-1.492188.046875.046875.089844-.082031zm1.742188 0-.132813.125.085938.082031.046875-.046875 1.617187 1.492188c.082031.078125.136719.175781.15625.285156.027344-.164063-.03125-.332031-.15625-.445313zm.335937 1.917969-.871093.625v.160156l.871093-.621094.054688.046875.097656-.070312zm0 0" fill="#fff" fill-opacity=".901961"/><path d="m8.273438 5.0625v.308594l.835937.601562.1875-.175781zm-2.964844.832031c-.0625.191407-.007813.398438.140625.527344l1.585937 1.464844.167969-.152344-1.753906-1.621094c-.066407-.058593-.113281-.132812-.140625-.21875zm5.253906.007813c-.027344.082031-.074219.15625-.136719.210937l-1.75 1.621094.164063.152344 1.585937-1.464844c.144531-.128906.195313-.332031.136719-.519531zm-2.289062 2.816406v.308594l.835937.773437.1875-.132812zm-1 .308594-1.148438 1.054687c-.121094.121094-.296875.167969-.464844.125-.167968-.042969-.300781-.167969-.351562-.332031-.070313.21875.015625.457031.207031.578125.195313.121094.445313.097656.609375-.0625l1.148438-1.054687zm3.289062.84375c-.03125.101562-.097656.191406-.183594.253906l-2.316406 1.652344c-.152344.109375-.351562.121094-.519531.039062-.164063-.085937-.269531-.257812-.269531-.445312v.308594c0 .1875.105468.359374.269531.445312.167969.082031.367187.070312.519531-.039062l2.316406-1.652344c.175782-.128906.25-.355469.183594-.5625zm0 0" fill-opacity=".235294"/><path d="m248.976224-100.010981c-4.249594 0-8.3742 1.624845-11.498902 4.624558-2.999713 2.999714-4.749546 7.12432-4.749546 11.373914v75.117827l-36.746491-33.871765c-4.124606-3.999619-10.124033-5.499475-15.623508-3.749642-5.499475 1.624844-9.749069 6.249403-10.99895 11.873866-1.124893 5.624463.749928 11.498902 4.999523 15.248544l56.11964 51.870046-56.11964 51.745059c-4.249595 3.749642-6.124416 9.624081-4.999523 15.248544 1.249881 5.749451 5.499475 10.249021 10.99895 11.873866 5.499475 1.749833 11.498902.249976 15.623508-3.749642l36.746491-33.746778v74.992839c0 5.999427 3.374677 11.498902 8.624176 14.248639 5.374487 2.62475 11.748878 2.249785 16.623413-1.24988l74.117922-52.869952c3.87463-2.874725 6.374391-7.249307 6.624367-11.998854.374964-4.874534-1.499857-9.499093-5.124511-12.748782l-55.994652-51.745059 55.994652-51.870046c3.624654-3.24969 5.499475-7.874249 5.124511-12.748783-.249976-4.749546-2.749737-9.124129-6.624367-11.998854l-74.117922-52.869951c-2.62475-1.874821-5.749451-2.874726-8.999141-2.999714zm15.748496 46.995512 32.746873 23.497756-32.746873 30.3721zm0 116.988828 32.746873 30.3721-32.746873 23.497756zm0 0" fill="none" stroke="#212121" stroke-linecap="round" stroke-linejoin="round" stroke-width="3" transform="matrix(.031253 0 0 .031253 0 6.719392)"/></svg>

<?xml version="1.0" encoding="UTF-8"?>
<svg xmlns="http://www.w3.org/2000/svg" xmlns:xlink="http://www.w3.org/1999/xlink" width="16pt" height="16pt" viewBox="0 0 16 16" version="1.1">
<defs>
<radialGradient id="radial0" gradientUnits="userSpaceOnUse" cx="450.90894" cy="189.57936" fx="450.90894" fy="189.57936" r="21.166656" gradientTransform="matrix(0.0000000870852,-0.0390662,-0.0703192,-0.0000000507693,22.261576,31.797666)">
<stop offset="0" style="stop-color:rgb(0%,0%,0%);stop-opacity:0.313725;"/>
<stop offset="0.222222" style="stop-color:rgb(0%,0%,0%);stop-opacity:0.27451;"/>
<stop offset="1" style="stop-color:rgb(0%,0%,0%);stop-opacity:0;"/>
</radialGradient>
<radialGradient id="radial1" gradientUnits="userSpaceOnUse" cx="450.90894" cy="189.57936" fx="450.90894" fy="189.57936" r="21.166656" gradientTransform="matrix(-0.0000000870852,0.0390662,0.0703192,0.0000000507693,-6.38506,-3.763741)">
<stop offset="0" style="stop-color:rgb(0%,0%,0%);stop-opacity:0.313725;"/>
<stop offset="0.222222" style="stop-color:rgb(0%,0%,0%);stop-opacity:0.27451;"/>
<stop offset="1" style="stop-color:rgb(0%,0%,0%);stop-opacity:0;"/>
</radialGradient>
<radialGradient id="radial2" gradientUnits="userSpaceOnUse" cx="450.90894" cy="189.57936" fx="450.90894" fy="189.57936" r="21.166656" gradientTransform="matrix(-0.0000000870852,-0.0390662,0.0703192,-0.0000000507693,-6.38506,31.797666)">
<stop offset="0" style="stop-color:rgb(0%,0%,0%);stop-opacity:0.313725;"/>
<stop offset="0.222222" style="stop-color:rgb(0%,0%,0%);stop-opacity:0.27451;"/>
<stop offset="1" style="stop-color:rgb(0%,0%,0%);stop-opacity:0;"/>
</radialGradient>
<radialGradient id="radial3" gradientUnits="userSpaceOnUse" cx="450.90894" cy="189.57936" fx="450.90894" fy="189.57936" r="21.166656" gradientTransform="matrix(0.0000000870852,0.0390662,-0.0703192,0.0000000507693,22.261575,-3.763741)">
<stop offset="0" style="stop-color:rgb(0%,0%,0%);stop-opacity:0.313725;"/>
<stop offset="0.222222" style="stop-color:rgb(0%,0%,0%);stop-opacity:0.27451;"/>
<stop offset="1" style="stop-color:rgb(0%,0%,0%);stop-opacity:0;"/>
</radialGradient>
<linearGradient id="linear0" gradientUnits="userSpaceOnUse" x1="255.32306" y1="233.5" x2="255.32304" y2="254.66666" gradientTransform="matrix(0.00668003,0,0,0.031253,6.232693,6.719392)">
<stop offset="0" style="stop-color:rgb(0%,0%,0%);stop-opacity:0.27451;"/>
<stop offset="1" style="stop-color:rgb(0%,0%,0%);stop-opacity:0;"/>
</linearGradient>
<linearGradient id="linear1" gradientUnits="userSpaceOnUse" x1="254" y1="233.5" x2="254" y2="-168.66667" gradientTransform="matrix(0.031253,0,0,0.031253,0,6.719392)">
<stop offset="0" style="stop-color:rgb(24.705882%,31.764706%,70.980392%);stop-opacity:1;"/>
<stop offset="1" style="stop-color:rgb(36.078431%,41.960784%,75.294118%);stop-opacity:1;"/>
</linearGradient>
<linearGradient id="linear2" gradientUnits="userSpaceOnUse" x1="232.83333" y1="-168.66666" x2="232.83333" y2="233.5" gradientTransform="matrix(0.031253,0,0,0.031253,0,6.719392)">
<stop offset="0" style="stop-color:rgb(87.843137%,87.843137%,87.843137%);stop-opacity:1;"/>
<stop offset="1" style="stop-color:rgb(74.117647%,74.117647%,74.117647%);stop-opacity:1;"/>
</linearGradient>
</defs>
<g id="surface1">
<path style=" stroke:none;fill-rule:nonzero;fill:url(#radial0);" d="M 9.097656 14.015625 L 10.417969 14.015625 L 10.417969 13.355469 L 9.097656 13.355469 Z M 9.097656 14.015625 "/>
<path style=" stroke:none;fill-rule:nonzero;fill:url(#radial1);" d="M 6.78125 14.015625 L 5.457031 14.015625 L 5.457031 14.679688 L 6.78125 14.679688 Z M 6.78125 14.015625 "/>
<path style=" stroke:none;fill-rule:nonzero;fill:url(#radial2);" d="M 6.78125 14.015625 L 5.457031 14.015625 L 5.457031 13.355469 L 6.78125 13.355469 Z M 6.78125 14.015625 "/>
<path style=" stroke:none;fill-rule:nonzero;fill:url(#radial3);" d="M 9.097656 14.015625 L 10.417969 14.015625 L 10.417969 14.679688 L 9.097656 14.679688 Z M 9.097656 14.015625 "/>
<path style=" stroke:none;fill-rule:nonzero;fill:url(#linear0);" d="M 6.78125 13.851562 L 9.097656 13.851562 L 9.097656 14.679688 L 6.78125 14.679688 Z M 6.78125 13.851562 "/>
<path style=" stroke:none;fill-rule:nonzero;fill:url(#linear1);" d="M 7.9375 1.449219 C 10.128906 1.449219 11.90625 3.226562 11.90625 5.417969 L 11.90625 10.046875 C 11.90625 12.238281 10.128906 14.015625 7.9375 14.015625 C 5.746094 14.015625 3.96875 12.238281 3.96875 10.046875 L 3.96875 5.417969 C 3.96875 3.226562 5.746094 1.449219 7.9375 1.449219 Z M 7.9375 1.449219 "/>
<path style=" stroke:none;fill-rule:nonzero;fill:rgb(100%,100%,100%);fill-opacity:0.392157;" d="M 7.9375 1.449219 C 5.738281 1.449219 3.96875 3.21875 3.96875 5.417969 L 3.96875 5.582031 C 3.96875 3.382812 5.738281 1.613281 7.9375 1.613281 C 10.136719 1.613281 11.90625 3.382812 11.90625 5.582031 L 11.90625 5.417969 C 11.90625 3.21875 10.136719 1.449219 7.9375 1.449219 Z M 7.9375 1.449219 "/>
<path style=" stroke:none;fill-rule:nonzero;fill:rgb(0%,0%,0%);fill-opacity:0.235294;" d="M 3.96875 9.941406 L 3.96875 10.046875 C 3.96875 12.246094 5.738281 14.015625 7.9375 14.015625 C 10.136719 14.015625 11.90625 12.246094 11.90625 10.046875 L 11.90625 9.941406 C 11.90625 12.140625 10.136719 13.910156 7.9375 13.910156 C 5.738281 13.910156 3.96875 12.140625 3.96875 9.941406 Z M 3.96875 9.941406 "/>
<path style=" stroke:none;fill-rule:nonzero;fill:rgb(12.941176%,12.941176%,12.941176%);fill-opacity:1;" d="M 7.9375 1.402344 C 5.714844 1.402344 3.921875 3.191406 3.921875 5.417969 L 3.921875 10.046875 C 3.921875 12.273438 5.714844 14.0625 7.9375 14.0625 C 10.164062 14.0625 11.953125 12.273438 11.953125 10.046875 L 11.953125 5.417969 C 11.953125 3.191406 10.164062 1.402344 7.9375 1.402344 Z M 7.9375 1.496094 C 10.113281 1.496094 11.859375 3.242188 11.859375 5.417969 L 11.859375 10.046875 C 11.859375 12.222656 10.113281 13.96875 7.9375 13.96875 C 5.765625 13.96875 4.015625 12.222656 4.015625 10.046875 L 4.015625 5.417969 C 4.015625 3.242188 5.765625 1.496094 7.9375 1.496094 Z M 7.9375 1.496094 "/>
<path style=" stroke:none;fill-rule:nonzero;fill:url(#linear2);" d="M 7.78125 3.59375 C 7.648438 3.59375 7.519531 3.644531 7.421875 3.738281 C 7.328125 3.832031 7.273438 3.960938 7.273438 4.09375 L 7.273438 6.441406 L 6.125 5.382812 C 5.996094 5.257812 5.808594 5.210938 5.636719 5.265625 C 5.464844 5.316406 5.332031 5.460938 5.292969 5.636719 C 5.257812 5.8125 5.316406 5.996094 5.449219 6.113281 L 7.203125 7.734375 L 5.449219 9.351562 C 5.316406 9.46875 5.257812 9.652344 5.292969 9.828125 C 5.332031 10.007812 5.464844 10.148438 5.636719 10.199219 C 5.808594 10.253906 5.996094 10.207031 6.125 10.082031 L 7.273438 9.027344 L 7.273438 11.371094 C 7.273438 11.558594 7.378906 11.730469 7.542969 11.816406 C 7.710938 11.898438 7.910156 11.886719 8.0625 11.777344 L 10.378906 10.125 C 10.5 10.035156 10.578125 9.898438 10.585938 9.75 C 10.597656 9.597656 10.539062 9.453125 10.425781 9.351562 L 8.675781 7.734375 L 10.425781 6.113281 C 10.539062 6.011719 10.597656 5.867188 10.585938 5.714844 C 10.578125 5.566406 10.5 5.429688 10.378906 5.339844 L 8.0625 3.6875 C 7.980469 3.628906 7.882812 3.597656 7.78125 3.59375 Z M 8.273438 5.0625 L 9.296875 5.796875 L 8.273438 6.746094 Z M 8.273438 8.71875 L 9.296875 9.667969 L 8.273438 10.402344 Z M 8.273438 8.71875 "/>
<path style=" stroke:none;fill-rule:nonzero;fill:rgb(100%,100%,100%);fill-opacity:0.901961;" d="M 7.78125 3.59375 C 7.648438 3.59375 7.519531 3.644531 7.421875 3.738281 C 7.328125 3.832031 7.273438 3.960938 7.273438 4.09375 L 7.273438 4.257812 C 7.273438 4.121094 7.328125 3.992188 7.421875 3.898438 C 7.519531 3.804688 7.648438 3.753906 7.78125 3.757812 C 7.882812 3.757812 7.980469 3.792969 8.0625 3.851562 L 10.378906 5.503906 C 10.484375 5.582031 10.558594 5.699219 10.578125 5.828125 C 10.609375 5.640625 10.53125 5.453125 10.378906 5.339844 L 8.0625 3.6875 C 7.980469 3.628906 7.882812 3.597656 7.78125 3.59375 Z M 5.761719 5.242188 C 5.621094 5.25 5.484375 5.316406 5.394531 5.425781 C 5.304688 5.539062 5.265625 5.683594 5.289062 5.824219 C 5.328125 5.589844 5.527344 5.414062 5.761719 5.40625 C 5.898438 5.402344 6.027344 5.449219 6.125 5.542969 L 7.273438 6.601562 L 7.273438 6.441406 L 6.125 5.382812 C 6.027344 5.289062 5.898438 5.238281 5.761719 5.242188 Z M 9.144531 5.9375 L 8.273438 6.746094 L 8.273438 6.90625 L 9.144531 6.101562 L 9.199219 6.140625 L 9.296875 6.046875 Z M 7.066406 7.859375 L 5.449219 9.351562 C 5.320312 9.464844 5.261719 9.636719 5.289062 9.804688 C 5.308594 9.691406 5.363281 9.589844 5.449219 9.511719 L 7.066406 8.019531 L 7.113281 8.066406 L 7.203125 7.984375 Z M 8.808594 7.859375 L 8.675781 7.984375 L 8.761719 8.066406 L 8.808594 8.019531 L 10.425781 9.511719 C 10.507812 9.589844 10.5625 9.6875 10.582031 9.796875 C 10.609375 9.632812 10.550781 9.464844 10.425781 9.351562 Z M 9.144531 9.777344 L 8.273438 10.402344 L 8.273438 10.5625 L 9.144531 9.941406 L 9.199219 9.988281 L 9.296875 9.917969 Z M 9.144531 9.777344 "/>
<path style=" stroke:none;fill-rule:nonzero;fill:rgb(0%,0%,0%);fill-opacity:0.235294;" d="M 8.273438 5.0625 L 8.273438 5.371094 L 9.109375 5.972656 L 9.296875 5.796875 Z M 5.308594 5.894531 C 5.246094 6.085938 5.300781 6.292969 5.449219 6.421875 L 7.035156 7.886719 L 7.203125 7.734375 L 5.449219 6.113281 C 5.382812 6.054688 5.335938 5.980469 5.308594 5.894531 Z M 10.5625 5.902344 C 10.535156 5.984375 10.488281 6.058594 10.425781 6.113281 L 8.675781 7.734375 L 8.839844 7.886719 L 10.425781 6.421875 C 10.570312 6.292969 10.621094 6.089844 10.5625 5.902344 Z M 8.273438 8.71875 L 8.273438 9.027344 L 9.109375 9.800781 L 9.296875 9.667969 Z M 7.273438 9.027344 L 6.125 10.082031 C 6.003906 10.203125 5.828125 10.25 5.660156 10.207031 C 5.492188 10.164062 5.359375 10.039062 5.308594 9.875 C 5.238281 10.09375 5.324219 10.332031 5.515625 10.453125 C 5.710938 10.574219 5.960938 10.550781 6.125 10.390625 L 7.273438 9.335938 Z M 10.5625 9.871094 C 10.53125 9.972656 10.464844 10.0625 10.378906 10.125 L 8.0625 11.777344 C 7.910156 11.886719 7.710938 11.898438 7.542969 11.816406 C 7.378906 11.730469 7.273438 11.558594 7.273438 11.371094 L 7.273438 11.679688 C 7.273438 11.867188 7.378906 12.039062 7.542969 12.125 C 7.710938 12.207031 7.910156 12.195312 8.0625 12.085938 L 10.378906 10.433594 C 10.554688 10.304688 10.628906 10.078125 10.5625 9.871094 Z M 10.5625 9.871094 "/>
<path style="fill:none;stroke-width:3;stroke-linecap:round;stroke-linejoin:round;stroke:rgb(12.941176%,12.941176%,12.941176%);stroke-opacity:1;stroke-miterlimit:4;" d="M 248.976224 -100.010981 C 244.72663 -100.010981 240.602024 -98.386136 237.477322 -95.386423 C 234.477609 -92.386709 232.727776 -88.262103 232.727776 -84.012509 L 232.727776 -8.894682 L 195.981285 -42.766447 C 191.856679 -46.766066 185.857252 -48.265922 180.357777 -46.516089 C 174.858302 -44.891245 170.608708 -40.266686 169.358827 -34.642223 C 168.233934 -29.01776 170.108755 -23.143321 174.35835 -19.393679 L 230.47799 32.476367 L 174.35835 84.221426 C 170.108755 87.971068 168.233934 93.845507 169.358827 99.46997 C 170.608708 105.219421 174.858302 109.718991 180.357777 111.343836 C 185.857252 113.093669 191.856679 111.593812 195.981285 107.594194 L 232.727776 73.847416 L 232.727776 148.840255 C 232.727776 154.839682 236.102453 160.339157 241.351952 163.088894 C 246.726439 165.713644 253.10083 165.338679 257.975365 161.839014 L 332.093287 108.969062 C 335.967917 106.094337 338.467678 101.719755 338.717654 96.970208 C 339.092618 92.095674 337.217797 87.471115 333.593143 84.221426 L 277.598491 32.476367 L 333.593143 -19.393679 C 337.217797 -22.643369 339.092618 -27.267928 338.717654 -32.142462 C 338.467678 -36.892008 335.967917 -41.266591 332.093287 -44.141316 L 257.975365 -97.011267 C 255.350615 -98.886088 252.225914 -99.885993 248.976224 -100.010981 Z M 264.72472 -53.015469 L 297.471593 -29.517713 L 264.72472 0.854387 Z M 264.72472 63.973359 L 297.471593 94.345459 L 264.72472 117.843215 Z M 264.72472 63.973359 " transform="matrix(0.031253,0,0,0.031253,0,6.719392)"/>
</g>
</svg>
